public/images/icons/social/github.svg

<svg fill="#000000" xmlns="http://www.w3.org/2000/svg"  viewBox="0 0 50 50" width="50px" height="50px"><path d="M 25 2 C 12.311335 2 2 12.311335 2 25 C 2 37.688665 12.311335 48 25 48 C 37.688665 48 48 37.688665 48 25 C 48 12.311335 37.688665 2 25 2 z M 25 4 C 36.607335 4 46 13.392665 46 25 C 46 25.071371 45.994849 25.141688 45.994141 25.212891 C 45.354527 25.153853 44.615508 25.097776 43.675781 25.064453 C 42.347063 25.017336 40.672259 25.030987 38.773438 25.125 C 38.843852 24.634651 38.893205 24.137377 38.894531 23.626953 C 38.991361 21.754332 38.362521 20.002464 37.339844 18.455078 C 37.586913 17.601352 37.876747 16.515218 37.949219 15.283203 C 38.031819 13.878925 37.910599 12.321765 36.783203 11.269531 L 36.494141 11 L 36.099609 11 C 33.416539 11 31.580023 12.12321 30.457031 13.013672 C 28.835529 12.386022 27.01222 12 25 12 C 22.976367 12 21.135525 12.391416 19.447266 13.017578 C 18.324911 12.126691 16.486785 11 13.800781 11 L 13.408203 11 L 13.119141 11.267578 C 12.020956 12.287321 11.919778 13.801759 11.988281 15.199219 C 12.048691 16.431506 12.321732 17.552142 12.564453 18.447266 C 11.524489 20.02486 10.900391 21.822018 10.900391 23.599609 C 10.900391 24.111237 10.947969 24.610071 11.017578 25.101562 C 9.2118173 25.017808 7.6020996 25.001668 6.3242188 25.046875 C 5.3845143 25.080118 4.6454422 25.135713 4.0058594 25.195312 C 4.0052628 25.129972 4 25.065482 4 25 C 4 13.392665 13.392665 4 25 4 z M 14.396484 13.130859 C 16.414067 13.322043 17.931995 14.222972 18.634766 14.847656 L 19.103516 15.261719 L 19.681641 15.025391 C 21.263092 14.374205 23.026984 14 25 14 C 26.973016 14 28.737393 14.376076 30.199219 15.015625 L 30.785156 15.273438 L 31.263672 14.847656 C 31.966683 14.222758 33.487184 13.321554 35.505859 13.130859 C 35.774256 13.575841 36.007486 14.208668 35.951172 15.166016 C 35.883772 16.311737 35.577304 17.559658 35.345703 18.300781 L 35.195312 18.783203 L 35.494141 19.191406 C 36.483616 20.540691 36.988121 22.000937 36.902344 23.544922 L 36.900391 23.572266 L 36.900391 23.599609 C 36.900391 26.095064 36.00178 28.092339 34.087891 29.572266 C 32.174048 31.052199 29.152663 32 24.900391 32 C 20.648118 32 17.624827 31.052192 15.710938 29.572266 C 13.797047 28.092339 12.900391 26.095064 12.900391 23.599609 C 12.900391 22.134903 13.429308 20.523599 14.40625 19.191406 L 14.699219 18.792969 L 14.558594 18.318359 C 14.326866 17.530484 14.042825 16.254103 13.986328 15.101562 C 13.939338 14.14294 14.166221 13.537027 14.396484 13.130859 z M 8.8847656 26.021484 C 9.5914575 26.03051 10.40146 26.068656 11.212891 26.109375 C 11.290419 26.421172 11.378822 26.727898 11.486328 27.027344 C 8.178972 27.097092 5.7047309 27.429674 4.1796875 27.714844 C 4.1152068 27.214494 4.0638483 26.710021 4.0351562 26.199219 C 5.1622058 26.092262 6.7509972 25.994233 8.8847656 26.021484 z M 41.115234 26.037109 C 43.247527 26.010033 44.835728 26.108156 45.962891 26.214844 C 45.934234 26.718328 45.883749 27.215664 45.820312 27.708984 C 44.24077 27.41921 41.699674 27.086688 38.306641 27.033203 C 38.411945 26.739677 38.499627 26.438219 38.576172 26.132812 C 39.471291 26.084833 40.344564 26.046896 41.115234 26.037109 z M 11.912109 28.019531 C 12.508849 29.215327 13.361516 30.283019 14.488281 31.154297 C 16.028825 32.345531 18.031623 33.177838 20.476562 33.623047 C 20.156699 33.951698 19.86578 34.312595 19.607422 34.693359 L 19.546875 34.640625 C 19.552375 34.634325 19.04975 34.885878 18.298828 34.953125 C 17.547906 35.020374 16.621615 35 15.800781 35 C 14.575781 35 14.03621 34.42121 13.173828 33.367188 C 12.696283 32.72356 12.114101 32.202331 11.548828 31.806641 C 10.970021 31.401475 10.476259 31.115509 9.8652344 31.013672 L 9.7832031 31 L 9.6992188 31 C 9.2325521 31 8.7809835 31.03379 8.359375 31.515625 C 8.1485707 31.756544 8.003277 32.202561 8.0976562 32.580078 C 8.1920352 32.957595 8.4308563 33.189581 8.6445312 33.332031 C 10.011254 34.24318 10.252795 36.046511 11.109375 37.650391 C 11.909298 39.244315 13.635662 40 15.400391 40 L 18 40 L 18 44.802734 C 10.967811 42.320535 5.6646795 36.204613 4.3320312 28.703125 C 5.8629338 28.414776 8.4265387 28.068108 11.912109 28.019531 z M 37.882812 28.027344 C 41.445538 28.05784 44.08105 28.404061 45.669922 28.697266 C 44.339047 36.201504 39.034072 42.31987 32 44.802734 L 32 39.599609 C 32 38.015041 31.479642 36.267712 30.574219 34.810547 C 30.299322 34.368135 29.975945 33.949736 29.615234 33.574219 C 31.930453 33.11684 33.832364 32.298821 35.3125 31.154297 C 36.436824 30.284907 37.287588 29.220424 37.882812 28.027344 z M 23.699219 34.099609 L 26.5 34.099609 C 27.312821 34.099609 28.180423 34.7474 28.875 35.865234 C 29.569577 36.983069 30 38.484177 30 39.599609 L 30 45.398438 C 28.397408 45.789234 26.72379 46 25 46 C 23.27621 46 21.602592 45.789234 20 45.398438 L 20 39.599609 C 20 38.508869 20.467828 37.011307 21.208984 35.888672 C 21.950141 34.766037 22.886398 34.099609 23.699219 34.099609 z M 12.308594 35.28125 C 13.174368 36.179258 14.222525 37 15.800781 37 C 16.579948 37 17.552484 37.028073 18.476562 36.945312 C 18.479848 36.945018 18.483042 36.943654 18.486328 36.943359 C 18.36458 37.293361 18.273744 37.645529 18.197266 38 L 15.400391 38 C 14.167057 38 13.29577 37.55443 12.894531 36.751953 L 12.886719 36.738281 L 12.880859 36.726562 C 12.716457 36.421191 12.500645 35.81059 12.308594 35.28125 z"/></svg>

<svg xmlns="http://www.w3.org/2000/svg" width="50" height="50"><path d="M25 2C12.311 2 2 12.311 2 25s10.311 23 23 23 23-10.311 23-23S37.689 2 25 2zm0 2c11.607 0 21 9.393 21 21 0 .071-.005.142-.006.213a39.758 39.758 0 0 0-2.318-.149 59.326 59.326 0 0 0-4.903.061c.07-.49.12-.988.122-1.498.096-1.873-.532-3.625-1.555-5.172.247-.854.537-1.94.61-3.172.082-1.404-.04-2.961-1.167-4.013l-.289-.27H36.1c-2.683 0-4.52 1.123-5.643 2.014A15.026 15.026 0 0 0 25 12a15.82 15.82 0 0 0-5.553 1.018C18.325 12.127 16.487 11 13.801 11h-.393l-.289.268c-1.098 1.02-1.2 2.534-1.13 3.931.06 1.233.333 2.353.575 3.248-1.04 1.578-1.664 3.375-1.664 5.153 0 .511.048 1.01.118 1.502-1.806-.084-3.416-.1-4.694-.055a39.49 39.49 0 0 0-2.318.148c0-.065-.006-.13-.006-.195C4 13.393 13.393 4 25 4zm-10.604 9.13c2.018.192 3.536 1.093 4.239 1.718l.469.414.578-.237C21.263 14.375 23.027 14 25 14c1.973 0 3.737.376 5.2 1.016l.585.257.479-.425c.703-.625 2.223-1.526 4.242-1.717.268.445.501 1.078.445 2.035-.067 1.146-.374 2.394-.605 3.135l-.15.482.298.408c.99 1.35 1.494 2.81 1.408 4.354l-.002.027v.028c0 2.495-.898 4.492-2.812 5.972C32.174 31.052 29.153 32 24.9 32c-4.252 0-7.275-.948-9.19-2.428-1.913-1.48-2.81-3.477-2.81-5.972 0-1.465.53-3.076 1.506-4.409l.293-.398-.14-.475c-.232-.788-.516-2.064-.573-3.216-.047-.96.18-1.565.41-1.971zM8.885 26.022c.706.01 1.516.048 2.328.088.077.312.166.619.273.918-3.307.07-5.781.403-7.306.688-.065-.5-.116-1.005-.145-1.516a44.845 44.845 0 0 1 4.85-.178zm32.23.016c2.133-.027 3.72.071 4.848.178-.029.503-.08 1-.143 1.494-1.58-.29-4.12-.622-7.513-.676.105-.293.193-.595.27-.9a64.2 64.2 0 0 1 2.538-.096zM11.912 28.02a9.029 9.029 0 0 0 2.576 3.134c1.54 1.192 3.544 2.024 5.989 2.469-.32.329-.611.69-.87 1.07l-.06-.052c.005-.007-.497.245-1.248.312S16.622 35 15.8 35c-1.225 0-1.765-.579-2.627-1.633a7.098 7.098 0 0 0-1.625-1.56c-.579-.406-1.073-.691-1.684-.793L9.783 31H9.7c-.466 0-.918.034-1.34.516-.21.24-.356.687-.261 1.064.094.378.333.61.547.752 1.366.911 1.608 2.715 2.464 4.318.8 1.594 2.527 2.35 4.291 2.35H18v4.803c-7.032-2.482-12.335-8.598-13.668-16.1 1.53-.288 4.095-.635 7.58-.683zm25.97.007c3.564.03 6.199.377 7.788.67C44.339 36.202 39.034 42.32 32 44.803V39.6c0-1.585-.52-3.332-1.426-4.79a7.52 7.52 0 0 0-.959-1.236c2.315-.457 4.217-1.275 5.698-2.42a9.004 9.004 0 0 0 2.57-3.127zM23.7 34.1h2.8c.813 0 1.68.647 2.375 1.765C29.57 36.983 30 38.485 30 39.6v5.798a21.078 21.078 0 0 1-10 0V39.6c0-1.091.468-2.589 1.209-3.711.741-1.123 1.677-1.79 2.49-1.79zm-11.39 1.18c.864.9 1.913 1.72 3.49 1.72.779 0 1.751.028 2.676-.055l.01-.002c-.122.35-.213.703-.29 1.057H15.4c-1.233 0-2.104-.446-2.505-1.248l-.008-.014-.006-.011c-.165-.306-.38-.916-.572-1.446z"/></svg>
